src/assets/twiter.svg

<svg width="24" height="24" viewBox="0 0 24 24" fill="none" xmlns="http://www.w3.org/2000/svg">
<path d="M22 5.01242C21.2511 5.35943 20.4567 5.58721 19.6433 5.68818C20.4905 5.15705 21.1411 4.31598 21.4474 3.31386C20.642 3.81376 19.7608 4.16598 18.8419 4.35529C18.0934 3.52125 17.027 3 15.8468 3C13.5807 3 11.7434 4.92156 11.7434 7.29155C11.7434 7.62796 11.7798 7.95547 11.8497 8.26965C8.43953 8.09062 5.41609 6.38209 3.39227 3.78559C3.03914 4.41943 2.8368 5.15673 2.8368 5.94313C2.8368 7.4321 3.56125 8.74563 4.66219 9.51528C4.01059 9.49394 3.37332 9.30986 2.80359 8.97843C2.80336 8.99641 2.80336 9.01438 2.80336 9.03244C2.80336 11.1118 4.21773 12.8464 6.09477 13.2406C5.49054 13.4125 4.85674 13.4377 4.2418 13.3142C4.76391 15.0192 6.2793 16.2599 8.07477 16.2947C6.67047 17.4457 4.90117 18.1318 2.97883 18.1318C2.64758 18.1318 2.32102 18.1115 2 18.0718C3.81586 19.2895 5.97266 20 8.28984 20C15.8373 20 19.9644 13.4605 19.9644 7.78926C19.9644 7.60312 19.9605 7.41804 19.9525 7.23403C20.7558 6.62664 21.4492 5.87434 22 5.01242Z" fill="black"/>
</svg>

<svg xmlns="http://www.w3.org/2000/svg" width="24" height="24" fill="none"><path fill="#000" d="M22 5.012a8 8 0 0 1-2.357.676 4.28 4.28 0 0 0 1.804-2.374c-.805.5-1.686.852-2.605 1.041A4.02 4.02 0 0 0 15.847 3c-2.266 0-4.104 1.922-4.104 4.292q.001.505.107.978c-3.41-.18-6.434-1.888-8.458-4.484a4.4 4.4 0 0 0-.555 2.157c0 1.49.724 2.803 1.825 3.572a3.95 3.95 0 0 1-1.858-.537v.054c0 2.08 1.414 3.814 3.29 4.209a3.9 3.9 0 0 1-1.852.073c.522 1.705 2.037 2.946 3.833 2.98A8 8 0 0 1 2 18.073 11.25 11.25 0 0 0 8.29 20c7.547 0 11.674-6.54 11.674-12.21q0-.28-.011-.556A8.6 8.6 0 0 0 22 5.012"/></svg>
